svgs/apple_music.svg

<svg width="192" height="192" viewBox="0 0 192 192" fill="none" xmlns="http://www.w3.org/2000/svg"><path d="m68 60 80-14M68 60v91m0-91V40.722a8 8 0 0 1 6.621-7.88l64-11.2c4.895-.857 9.379 2.91 9.379 7.88V46m0 0v89m-98.477.234-8.48 1.483A15.761 15.761 0 0 0 28 152.242c0 9.791 8.833 17.212 18.477 15.524l8.48-1.483A15.761 15.761 0 0 0 68 150.758c0-9.791-8.833-17.212-18.477-15.524Zm80-16-8.479 1.483A15.761 15.761 0 0 0 108 136.242c0 9.791 8.833 17.212 18.477 15.524l8.479-1.483A15.761 15.761 0 0 0 148 134.758c0-9.791-8.833-17.212-18.477-15.524Z" stroke="#000" stroke-width="12"/></svg>

<?xml version="1.0" encoding="UTF-8" standalone="no"?><svg xmlns:android="http://schemas.android.com/apk/res/android" height="192" width="192" xmlns="http://www.w3.org/2000/svg">
  <path d="M68,60L148,46M68,60V151M68,60V40.722C68,36.835 70.793,33.511 74.621,32.841L138.621,21.641C143.516,20.785 148,24.552 148,29.522V46M148,46V135" fill="#000000" fill-opacity="0.0" stroke="#000000" stroke-width="12"/>
  <path d="M49.523,135.234L41.044,136.717C33.502,138.037 28,144.586 28,152.242C28,162.033 36.833,169.454 46.477,167.766L54.956,166.283C62.498,164.963 68,158.414 68,150.758C68,140.967 59.167,133.546 49.523,135.234Z" fill="#000000" fill-opacity="0.0" stroke="#000000" stroke-width="12"/>
  <path d="M129.523,119.234L121.044,120.717C113.502,122.037 108,128.586 108,136.242C108,146.033 116.833,153.454 126.477,151.766L134.956,150.283C142.498,148.963 148,142.414 148,134.758C148,124.967 139.167,117.546 129.523,119.234Z" fill="#000000" fill-opacity="0.0" stroke="#000000" stroke-width="12"/>
</svg>
